X: 10511
M: 6/8
L: 1/8
K: Dm
V: 1 staves=3
|:\
|:\
fad fad | fga agf | egc egc | efg gfe |\
fga gab | afd ecA | fed cAG | Ad^c d2z :|
V: 2
|:\
|:\
def efg | fdA cAA | dcB AFE | FFE F2z :|
V: 3 clef=bass middle=d
|:\
f3 f3 | f3 f3 | f3 f2a | c'2c' f3 |\
f3 f3 | f3 f3 | f3 fac'| fdA d2z :|
|:\
d'3 d'3 | =b6 | c'3 c'3 | a6 |\
d6 | d2f a3 | d2e fac' | fdA d2z :|


